X: 23189
T: Le Ruisseau Français
R: reel
M: 4/4
K: Dmajor
de|"D" f2d2 "G"e3d|"A"cdec "F#m"A2Bc|"G"d2B2"Em"G2d2|"A"cdecA2de|
"D"f2a2"G"e3d|"A"cdec"F#m"A2dc|"G"B3d "A"cdeg|"D"fd"A"ec "D"d2:|
(3DEF|"Em"GFGA "G"B2Bd|"A"cABc "D"d2ef|"Em"g2e2 "E7"efed|"E/G#"cdec "A"A2 ag|
"D"fgaf "G"g2 gf|"A"efge "D"afdc|"G"Bged "A"cage|"D"fd"A"ec "D"d2:|

